icons/14x14_mail_outline.svg

<svg xmlns="http://www.w3.org/2000/svg" width="14" height="14" viewBox="0 0 14 14">
  <path d="M4.1503574,4 L7.03048137,6.79784357 L9.85095877,4 L4.1503574,4 Z M11,5.32514315 L7.6531159,8.6451691 C7.31451733,8.98105048 6.76930039,8.98390243 6.42720656,8.65158165 L3,5.32228475 L3,10 L11,10 L11,5.32514315 Z M3,2 L11,2 C12.1045695,2 13,2.8954305 13,4 L13,10 C13,11.1045695 12.1045695,12 11,12 L3,12 C1.8954305,12 1,11.1045695 1,10 L1,4 C1,2.8954305 1.8954305,2 3,2 Z"/>
</svg>

<svg width="14" height="14" fill="none" xmlns="http://www.w3.org/2000/svg"><path d="m4.15 4 2.88 2.798L9.851 4h-5.7ZM11 5.325l-3.347 3.32a.875.875 0 0 1-1.226.007L3 5.322V10h8V5.325ZM3 2h8a2 2 0 0 1 2 2v6a2 2 0 0 1-2 2H3a2 2 0 0 1-2-2V4a2 2 0 0 1 2-2Z" fill="#000"/></svg>
